svg/file/bill_line.svg

<?xml version="1.0" encoding="UTF-8"?>
<svg width="24px" height="24px" viewBox="0 0 24 24" version="1.1" xmlns="http://www.w3.org/2000/svg" xmlns:xlink="http://www.w3.org/1999/xlink">
    <title>bill_line</title>
    <g id="页面-1" stroke="none" stroke-width="1" fill="none" fill-rule="evenodd">
        <g id="File" transform="translate(-288.000000, -192.000000)">
            <g id="bill_line" transform="translate(288.000000, 192.000000)">
                 <path d="M24,0 L24,24 L0,24 L0,0 L24,0 Z M12.5934901,23.257841 L12.5819402,23.2595131 L12.5108777,23.2950439 L12.4918791,23.2987469 L12.4918791,23.2987469 L12.4767152,23.2950439 L12.4056548,23.2595131 C12.3958229,23.2563662 12.3870493,23.2590235 12.3821421,23.2649074 L12.3780323,23.275831 L12.360941,23.7031097 L12.3658947,23.7234994 L12.3769048,23.7357139 L12.4804777,23.8096931 L12.4953491,23.8136134 L12.4953491,23.8136134 L12.5071152,23.8096931 L12.6106902,23.7357139 L12.6232938,23.7196733 L12.6232938,23.7196733 L12.6266527,23.7031097 L12.609561,23.275831 C12.6075724,23.2657013 12.6010112,23.2592993 12.5934901,23.257841 L12.5934901,23.257841 Z M12.8583906,23.1452862 L12.8445485,23.1473072 L12.6598443,23.2396597 L12.6498822,23.2499052 L12.6498822,23.2499052 L12.6471943,23.2611114 L12.6650943,23.6906389 L12.6699349,23.7034178 L12.6699349,23.7034178 L12.678386,23.7104931 L12.8793402,23.8032389 C12.8914285,23.8068999 12.9022333,23.8029875 12.9078286,23.7952264 L12.9118235,23.7811639 L12.8776777,23.1665331 C12.8752882,23.1545897 12.8674102,23.1470016 12.8583906,23.1452862 L12.8583906,23.1452862 Z M12.1430473,23.1473072 C12.1332178,23.1423925 12.1221763,23.1452606 12.1156365,23.1525954 L12.1099173,23.1665331 L12.0757714,23.7811639 C12.0751323,23.7926639 12.0828099,23.8018602 12.0926481,23.8045676 L12.108256,23.8032389 L12.3092106,23.7104931 L12.3186497,23.7024347 L12.3186497,23.7024347 L12.3225043,23.6906389 L12.340401,23.2611114 L12.337245,23.2485176 L12.337245,23.2485176 L12.3277531,23.2396597 L12.1430473,23.1473072 Z" id="MingCute" fill-rule="nonzero"></path>
                <path d="M4,5 C4,3.34315 5.34315,2 7,2 L17,2 C18.6569,2 20,3.34315 20,5 L20,21 C20,21.3844 19.7797,21.7348 19.4332,21.9013 C19.0867,22.0678 18.6755,22.021 18.3753,21.7809 L16.5,20.2806 L14.6247,21.7809 C14.2268,22.0992 13.6532,22.0674 13.2929,21.7071 L12,20.4142 L10.7071,21.7071 C10.3468,22.0674 9.7732,22.0992 9.37531,21.7809 L7.5,20.2806 L5.6247,21.7809 C5.32453,22.021 4.91328,22.0678 4.56681,21.9013 C4.22035,21.7348 4,21.3844 4,21 L4,5 Z M7,4 C6.44772,4 6,4.44772 6,5 L6,18.9194 L6.8753,18.2191 C7.24052,17.927 7.75948,17.927 8.12469,18.2191 L9.92578,19.66 L11.2929,18.2929 C11.6834,17.9024 12.3166,17.9024 12.7071,18.2929 L14.0742,19.66 L15.8753,18.2191 C16.2405,17.927 16.7595,17.927 17.1247,18.2191 L18,18.9194 L18,5 C18,4.44772 17.5523,4 17,4 L7,4 Z M8,9 C8,8.44772 8.44772,8 9,8 L15,8 C15.5523,8 16,8.44772 16,9 C16,9.55228 15.5523,10 15,10 L9,10 C8.44772,10 8,9.55228 8,9 Z M9,12 C8.44772,12 8,12.4477 8,13 C8,13.5523 8.44772,14 9,14 L12,14 C12.5523,14 13,13.5523 13,13 C13,12.4477 12.5523,12 12,12 L9,12 Z" id="形状" fill="#09244B"></path>
            </g>
        </g>
    </g>
</svg>

<svg xmlns="http://www.w3.org/2000/svg" width="24" height="24"><g fill="none" fill-rule="evenodd"><path d="M24 0v24H0V0h24ZM12.593 23.258l-.011.002-.071.035-.02.004-.014-.004-.071-.035c-.01-.004-.019-.001-.024.005l-.004.01-.017.428.005.02.01.013.104.074.015.004.012-.004.104-.074.012-.016.004-.017-.017-.427c-.002-.01-.009-.017-.017-.018Zm.265-.113-.013.002-.185.093-.01.01-.003.011.018.43.005.012.008.007.201.093c.012.004.023 0 .029-.008l.004-.014-.034-.614c-.003-.012-.01-.02-.02-.022Zm-.715.002a.023.023 0 0 0-.027.006l-.006.014-.034.614c0 .012.007.02.017.024l.015-.002.201-.093.01-.008.004-.011.017-.43-.003-.012-.01-.01-.184-.092Z"/><path fill="#09244B" d="M4 5a3 3 0 0 1 3-3h10a3 3 0 0 1 3 3v16a1 1 0 0 1-1.625.78l-1.875-1.5-1.875 1.5a1 1 0 0 1-1.332-.073L12 20.414l-1.293 1.293a1 1 0 0 1-1.332.074L7.5 20.28l-1.875 1.5A1 1 0 0 1 4 21V5Zm3-1a1 1 0 0 0-1 1v13.92l.875-.7a1 1 0 0 1 1.25 0l1.8 1.44 1.368-1.367a1 1 0 0 1 1.414 0l1.367 1.367 1.801-1.44a1 1 0 0 1 1.25 0l.875.7V5a1 1 0 0 0-1-1H7Zm1 5a1 1 0 0 1 1-1h6a1 1 0 1 1 0 2H9a1 1 0 0 1-1-1Zm1 3a1 1 0 1 0 0 2h3a1 1 0 1 0 0-2H9Z"/></g></svg>
